X: 346
T: 42nd Highlanders Farewell
B: canberra pickers and fiddlers
B: old time tunes update
B: tunes
M:4/4
R: reel
Q: 1/4=100
K:Bm
V:1 
fe|d z B2 B3 c|d z B2 B3 c|d2 cB edcB|A4 A2 Bc|
d z B2 B3 c|d z B2 B3 c|d3 e f z d z|B4 B2 c2|
d3 e f3 e|f3 e d2 e2|f2 ed edcB|A4 A2 c2|
B3 c d2 e2|f3 e d z c z|a3 f e2 dc|B4 f2 fe||
% abcbook-tune_id 67a7d9ecb5b15dc060cf0906
% abcbook-tune_composer_id 
% abcbook-link-0 https://www.youtube.com/watch?v=vG-mvGg-Vhk
% abcbook-link-title-0 Highlander&#39;s Farewell - Alasdair Fraser, Natalie Haas &amp; Chris Thile - 10/17/2015
% abcbook-link-end-at-0 71
% abcbook-boost 0
% abcbook-difficulty 0
% abcbook-tags old time tunes
% abcbook-tablature 
% abcbook-transpose -2
% abcbook-tuning GDAE
% abcbook-lastupdated 1739273322710
% abcbook-src-url 
% abcbook-soundfonts 
% abcbook-repeats 1
%%MIDI transpose -2


